X: 10226
T: Dizzy Blue
R: reel
M: 4/4
K: Eminor
|:EBAB2AG A-|AAGED2E2|EedB A2BE-|EBAGD2E2|
BAGE2AGA|B2 GE D2 E2|edB A2 BAB-|BBAG A2 A2:|
|:ee1/2e1/2ee dBAB-|BdBA EDEG|c2BA dcBA-|ABGE AGFD|
ee1/2e1/2ee dBAB-|BdBA EFGB|edBA2 BAB-|BBAG A2A2:|
|:BAGE2 AGA|BAGE2 AGA|BAGE2 AGA|Bde2 dBAG
|BAGE2 AGA|BAGE2 AGA|BAGE2 AGA|Bde2 dBAG:|

